svg/SJJB-OpenStreetMapIcons/poi/tower_water.svg

<?xml version="1.0" encoding="UTF-8" standalone="no"?>
<!-- Created with Inkscape (http://www.inkscape.org/) -->
<svg
   xmlns:dc="http://purl.org/dc/elements/1.1/"
   xmlns:cc="http://creativecommons.org/ns#"
   xmlns:rdf="http://www.w3.org/1999/02/22-rdf-syntax-ns#"
   xmlns:svg="http://www.w3.org/2000/svg"
   xmlns="http://www.w3.org/2000/svg"
   xmlns:sodipodi="http://sodipodi.sourceforge.net/DTD/sodipodi-0.dtd"
   xmlns:inkscape="http://www.inkscape.org/namespaces/inkscape"
   version="1.0"
   width="580"
   height="580"
   id="svg2"
   sodipodi:version="0.32"
   inkscape:version="0.46"
   sodipodi:docname="poi_tower_water.svg"
   inkscape:output_extension="org.inkscape.output.svg.inkscape">
  <metadata
     id="metadata10">
    <rdf:RDF>
      <cc:Work
         rdf:about="">
        <dc:format>image/svg+xml</dc:format>
        <dc:type
           rdf:resource="http://purl.org/dc/dcmitype/StillImage" />
        <cc:license
           rdf:resource="http://web.resource.org/cc/PublicDomain" />
        <dc:language>en</dc:language>
      </cc:Work>
    </rdf:RDF>
  </metadata>
  <sodipodi:namedview
     inkscape:window-height="711"
     inkscape:window-width="1014"
     inkscape:pageshadow="2"
     inkscape:pageopacity="0.0"
     guidetolerance="10.0"
     gridtolerance="10.0"
     objecttolerance="10.0"
     borderopacity="1.0"
     bordercolor="#666666"
     pagecolor="#ffffff"
     id="base"
     showgrid="false"
     inkscape:zoom="0.70710678"
     inkscape:cx="184.52059"
     inkscape:cy="259.98847"
     inkscape:window-x="1"
     inkscape:window-y="1"
     inkscape:current-layer="svg2" />
  <defs
     id="defs4">
    <inkscape:perspective
       sodipodi:type="inkscape:persp3d"
       inkscape:vp_x="0 : 290 : 1"
       inkscape:vp_y="0 : 1000 : 0"
       inkscape:vp_z="580 : 290 : 1"
       inkscape:persp3d-origin="290 : 193.33333 : 1"
       id="perspective12" />
    <style
       type="text/css"
       id="style6">
   
    .fil0 {fill:#EF7900}
   
  </style>
    <inkscape:perspective
       id="perspective6807"
       inkscape:persp3d-origin="29.116032 : 19.410688 : 1"
       inkscape:vp_z="58.232063 : 29.116032 : 1"
       inkscape:vp_y="0 : 1000 : 0"
       inkscape:vp_x="0 : 29.116032 : 1"
       sodipodi:type="inkscape:persp3d" />
    <inkscape:perspective
       id="perspective6954"
       inkscape:persp3d-origin="290 : 193.33333 : 1"
       inkscape:vp_z="580 : 290 : 1"
       inkscape:vp_y="0 : 1000 : 0"
       inkscape:vp_x="0 : 290 : 1"
       sodipodi:type="inkscape:persp3d" />
    <inkscape:perspective
       id="perspective2541"
       inkscape:persp3d-origin="240 : 160 : 1"
       inkscape:vp_z="480 : 240 : 1"
       inkscape:vp_y="0 : 1000 : 0"
       inkscape:vp_x="0 : 240 : 1"
       sodipodi:type="inkscape:persp3d" />
    <inkscape:perspective
       id="perspective2750"
       inkscape:persp3d-origin="215 : 143.33333 : 1"
       inkscape:vp_z="430 : 215 : 1"
       inkscape:vp_y="0 : 1000 : 0"
       inkscape:vp_x="0 : 215 : 1"
       sodipodi:type="inkscape:persp3d" />
    <inkscape:perspective
       id="perspective3730"
       inkscape:persp3d-origin="88.929146 : 101.19778 : 1"
       inkscape:vp_z="177.85829 : 151.79668 : 1"
       inkscape:vp_y="0 : 1000 : 0"
       inkscape:vp_x="0 : 151.79668 : 1"
       sodipodi:type="inkscape:persp3d" />
  </defs>
  <g
     id="g1327">
    <path
       d="M 66.275,1.768 C 24.94,1.768 1.704,23.139 1.704,66.804 L 1.704,516.927 C 1.704,557.771 22.598,579.156 63.896,579.156 L 515.92,579.156 C 557.227,579.156 578.149,558.84 578.149,516.927 L 578.149,66.804 C 578.149,24.203 557.227,1.768 514.627,1.768 C 514.624,1.768 66.133,1.625 66.275,1.768 z"
       style="fill:#111111;stroke:#eeeeee;stroke-width:3.40799999"
       id="path1329" />
  </g>
  <path
     style="opacity:1;fill:none;fill-opacity:1;stroke:#ffffff;stroke-width:25;stroke-linecap:round;stroke-linejoin:round;stroke-miterlimit:4;stroke-dasharray:none;stroke-dashoffset:0;stroke-opacity:1"
     d="M 465.793,62.574137 L 465.793,259.82351 L 109.79188,259.82351 L 109.79188,62.574132"
     id="rect9358" />
  <path
     style="opacity:1;fill:none;fill-rule:evenodd;stroke:#ffffff;stroke-width:15;stroke-linecap:round;stroke-linejoin:miter;stroke-miterlimit:4;stroke-dasharray:none;stroke-opacity:1"
     d="M 412.59142,386.90464 L 159.9469,518.63119"
     id="path9895" />
  <path
     style="fill:none;fill-opacity:0.75;fill-rule:evenodd;stroke:#ffffff;stroke-width:30;stroke-linecap:round;stroke-linejoin:round;stroke-miterlimit:4;stroke-dasharray:none;stroke-opacity:1"
     sodipodi:nodetypes="cz"
     id="path9928"
     d="M 408.76254,266.44053 L 428.78369,541.64865" />
  <path
     d="M 170.78369,266.44053 L 150.76254,541.64865"
     id="path5516"
     sodipodi:nodetypes="cz"
     style="fill:none;fill-opacity:0.75;fill-rule:evenodd;stroke:#ffffff;stroke-width:30;stroke-linecap:round;stroke-linejoin:round;stroke-miterlimit:4;stroke-dasharray:none;stroke-opacity:1" />
  <path
     id="path5518"
     d="M 161.9469,386.90464 L 414.59142,518.63119"
     style="opacity:1;fill:none;fill-rule:evenodd;stroke:#ffffff;stroke-width:15;stroke-linecap:round;stroke-linejoin:miter;stroke-miterlimit:4;stroke-dasharray:none;stroke-opacity:1" />
  <path
     id="path5520"
     d="M 407.50975,275.98631 L 165.75649,388.33632"
     style="opacity:1;fill:none;fill-rule:evenodd;stroke:#ffffff;stroke-width:15;stroke-linecap:round;stroke-linejoin:miter;stroke-miterlimit:4;stroke-dasharray:none;stroke-opacity:1" />
  <path
     style="opacity:1;fill:none;fill-rule:evenodd;stroke:#ffffff;stroke-width:15;stroke-linecap:round;stroke-linejoin:miter;stroke-miterlimit:4;stroke-dasharray:none;stroke-opacity:1"
     d="M 167.75649,275.98631 L 409.50975,388.33632"
     id="path5522" />
  <path
     style="fill:#ffffff;fill-opacity:1;fill-rule:evenodd"
     d="M 257.53125,71.1875 C 234.13455,72.620079 213.87744,91.345986 189.75,86.5625 C 171.34371,83.063645 153.97598,68.866788 134.59375,75.21875 C 127.16974,77.001716 120.06208,79.81076 112.90625,82.4375 C 113.14309,92.315042 112.43762,103.53792 113.25,112.59375 C 129.81933,105.89592 149.34308,100.58888 166.34375,108.9375 C 180.55694,114.66261 196.23515,122.04477 211.59375,115.875 C 231.06299,109.62404 251.82282,96.9807 272.9375,104.21875 C 289.75487,109.27046 307.4194,119.58331 325.30527,113.06903 C 344.85489,107.50342 365.8397,98.805156 386.25,105.96875 C 405.10087,111.19323 425.00818,121.84269 444.625,114.375 C 448.03249,112.40802 455.32818,112.91022 455.625,108.5625 C 455.625,99.145833 455.625,89.729167 455.625,80.3125 C 440.36979,86.64272 422.77847,88.357891 407.15625,82.125 C 389.12995,76.236951 369.58936,68.061747 350.75723,75.118471 C 332.69221,80.361731 312.92676,88.727627 294.21875,81.21875 C 282.17163,77.501763 270.49407,70.83987 257.53125,71.1875 z"
     id="path121" />
  <rect
     style="opacity:0.25;fill:#ffffff;fill-opacity:1;stroke:none;stroke-width:25;stroke-linecap:round;stroke-linejoin:round;stroke-miterlimit:4;stroke-dasharray:none;stroke-dashoffset:0;stroke-opacity:1"
     id="rect7883"
     width="346.48233"
     height="152.73506"
     x="114.5513"
     y="99.167389"
     ry="20.087805" />
</svg>

<svg xmlns="http://www.w3.org/2000/svg" viewBox="0 0 580 580"><path d="m66.28 1.768c-41.34 0-64.57 21.371-64.57 65.04v450.12c0 40.844 20.894 62.23 62.19 62.23h452.02c41.31 0 62.23-20.316 62.23-62.23v-450.12c0-42.601-20.922-65.04-63.52-65.04-.003 0-448.49-.143-448.35 0z" fill="#111" stroke="#eee" stroke-width="3.408"/><g fill="none" stroke="#fff" stroke-linecap="round"><path d="m465.79 62.57v197.25h-356v-197.25" stroke-linejoin="round" stroke-width="25"/><g fill-rule="evenodd"><path d="m412.59 386.9l-252.64 131.73" stroke-width="15"/><g stroke-linejoin="round" fill-opacity=".75" stroke-width="30"><path d="m408.76 266.44l20.02 275.21"/><path d="m170.78 266.44l-20.02 275.21"/></g><g stroke-width="15"><path d="m161.95 386.9l252.64 131.73"/><path d="m407.51 275.99l-241.75 112.35"/><path d="m167.76 275.99l241.75 112.35"/></g></g></g><g fill="#fff"><path d="m257.53 71.19c-23.397 1.433-43.654 20.16-67.781 15.375-18.406-3.499-35.774-17.696-55.16-11.344-7.424 1.783-14.532 4.592-21.688 7.219.237 9.878-.469 21.1.344 30.16 16.569-6.698 36.09-12 53.09-3.656 14.213 5.725 29.891 13.11 45.25 6.938 19.469-6.251 40.23-18.894 61.34-11.656 16.817 5.05 34.482 15.365 52.37 8.85 19.55-5.566 40.534-14.264 60.945-7.1 18.851 5.224 38.758 15.874 58.37 8.406 3.407-1.967 10.703-1.465 11-5.813 0-9.417 0-18.833 0-28.25-15.255 6.33-32.847 8.05-48.47 1.813-18.03-5.888-37.567-14.06-56.4-7.01-18.07 5.243-37.83 13.609-56.54 6.1-12.05-3.717-23.725-10.379-36.688-10.03" fill-rule="evenodd"/><rect width="346.48" height="152.74" x="114.55" y="99.17" opacity=".25" rx="20.09"/></g></svg>
